icon/hi/currency-yen-outline.svg

<svg viewBox="0 0 24 24" fill="none" xmlns="http://www.w3.org/2000/svg" height="1em" width="1em">
  <path d="M9 8L12 13M12 13L15 8M12 13V17M9 12H15M9 15H15M21 12C21 16.9706 16.9706 21 12 21C7.02944 21 3 16.9706 3 12C3 7.02944 7.02944 3 12 3C16.9706 3 21 7.02944 21 12Z" stroke="#4A5568" stroke-width="2" stroke-linecap="round" stroke-linejoin="round"/>
</svg>

<svg width="24" height="24" fill="none" xmlns="http://www.w3.org/2000/svg"><path d="m9 8 3 5m0 0 3-5m-3 5v4m-3-5h6m-6 3h6m6-3a9 9 0 1 1-18 0 9 9 0 0 1 18 0Z" stroke="#4A5568" stroke-width="2" stroke-linecap="round" stroke-linejoin="round"/></svg>
